!!!OTL: Die Beichte (46), S. 147
!!!id: T0178
**kern
*clefG2
*k[f#]
*G:
{8d
=1
8g
8g
8g
8g
=2
8g
8b
4g}
=3
{8a
8g
8f#
8e
=4
8d
8b
4g}
=5
{8d
8g
8g
8g
=6
8g
8b
4g
=7
8a
8a
8dd
8cc
=8
4b}
8r
=9
{8b
=10
8a
8b
8a
8g
=11
8f#
8e
8d}
=12
{8b
=13
8a
8b
8a
8g
=14
8f#
8e
8d}
=15
{8d
=16
8g
8g
8g
8g
=17
4a
8dd
8cc
=18
4b}
8r
=19
{8d
=20
8d
8d
8d
8cc
=21
4b
4a
=22
4g}
8r
==
*-
!!!minrhy: 8
!!!meters: 2/4 ]  ZZ[7
!!!cut: Die Beichte (46), S. 147
!!!reg: Luxemburg
!!!trd: Singendes Volk, Esch-Alzette 1937 posth.
!!!rhy1: X  XXXX  XXX_
!!!rhy2: XXXX  XXX_
!!!key: T0178  08  G 2/4 ]  ZZ[7
!!!mod: HEPTATONIK IONISCH]  AMBITUS[8
!!!kad: 113-5-531
!!!akz: 11_2-5_-5123_2-7_2-7_123_-531_
!!!fot: 'a__b__aw_c__c__d__e__
!!!for: 'a__av_aw_av_av_b__c__
!!!fok: '^a_\__^a_\__\__^a_^a_
!! PHRAS[VORWIEGEND AUFTAKTIG]
!!!fkt: Liebeslieder
!!!bem: Reuland, hhh Heinrich Stein, 1910
!! THILL, Mathias:
!! PR[41] 2K[0] 2G[6] 3K[6] 3G[3] 4A[6] 4Ü[0] 5A[3] 6K[0] 6G[3]
!! 7K[0] 7G[0] 8A[0] MEHR[0] SI[26] ABS[34] SR[6] SP[21]
!! ST[10] 2k[0] 2g[9] 3k[12] 3g[9] 4d[3] 4ü[0] 5d[0] 6k[0] 6g[0]
!! 7k[0] 7g[0] 8d[0] mehr[0] si[32] dm[-6] sr[9] sp[24]
!! 1F[5] 2F[84] 3F[11] 4F[0] LF[0] 2P[0] 3P[0] 4P[0] TRI[0] DF[3] AB[37]
!! TF[0] U3K[0] U3[0] U4[0] U4Ü[0] U5[14] U6K[0] U6[0] U7K[0] U7[0]
!! N1[26] N2K[0] N2[9] N3K[0] N3[29] N4[0] N4Ü[0] N5[20] N6K[0] N6[3]
!!!n7k: 0] N7[0] O1[0] O2K[0] O2[0] O3K[0] O3[0] HÖ[0
